src/lib/packages/icons/src/assets/line/battery-empty.svg

<svg xmlns="http://www.w3.org/2000/svg" width="24" height="24" fill="none"><path fill="currentColor" d="M17.5 7.25h-13c-1.409 0-2.25.841-2.25 2.25v6c0 1.409.841 2.25 2.25 2.25h13c1.409 0 2.25-.841 2.25-2.25v-6c0-1.409-.841-2.25-2.25-2.25Zm.75 8.25c0 .589-.161.75-.75.75h-13c-.589 0-.75-.161-.75-.75v-6c0-.589.161-.75.75-.75h13c.589 0 .75.161.75.75v6Zm3.5-4.5v3a.75.75 0 0 1-1.5 0v-3a.75.75 0 0 1 1.5 0Z"/></svg>

<svg width="24" height="24" viewBox="0 0 24 24" fill="none" xmlns="http://www.w3.org/2000/svg">
<path d="M17.5 7.25H4.5C3.091 7.25 2.25 8.091 2.25 9.5V15.5C2.25 16.909 3.091 17.75 4.5 17.75H17.5C18.909 17.75 19.75 16.909 19.75 15.5V9.5C19.75 8.091 18.909 7.25 17.5 7.25ZM18.25 15.5C18.25 16.089 18.089 16.25 17.5 16.25H4.5C3.911 16.25 3.75 16.089 3.75 15.5V9.5C3.75 8.911 3.911 8.75 4.5 8.75H17.5C18.089 8.75 18.25 8.911 18.25 9.5V15.5ZM21.75 11V14C21.75 14.414 21.414 14.75 21 14.75C20.586 14.75 20.25 14.414 20.25 14V11C20.25 10.586 20.586 10.25 21 10.25C21.414 10.25 21.75 10.586 21.75 11Z" fill="currentColor"/>
</svg>
